X: 30023
T: Off She Goes
R: polka
M: 2/4
K: Gmajor
|:GG gg|fd ef|dB dB|BA A2|
GG gg|fd ef|dB AA|1 [M:3/4] G2 G2 A2:|2 [M:2/4]G2 G2||
|:gb af/a/|bg gd|gb af/a/|ba af|
gf ef|dB GA|BB AA|1 G2 G2:|2 [M:3/4] G2 G2 A2||

